!! Stephen C. Foster, "Open Thy Lattice Love"
!! from 'Stephen Foster Song Book' Dover Publications (New York) pp. 108-109
!! NOTE:  Leading and trailing bars of rest have been omitted.
**kern
*M6/8
*MM69
*D:
=1
8.a
16g#
8a
16b
16b
8r
8a
=2
8a
8a
8ff#
4dd
16r
16a
=3
8a
8g
8f#
8.f#
16g
8f#
=4
8.e
16f#
8g
4f#
16r
16a
=5
8.g#
16f#
8g#
8.a
16g#
8a
=6
4b
8b
8.cc#
16dd
8cc#
=7
8.cc#
16b
8cc#
8ee
8.dd
16b
=8
8a
8.b
16g#
4a;
16r
16a
=9
4dd
16a
16a
8.a
16g
8f#
=10
8g
8a
8g
4f#
8f#
=11
8e
8e
8f#
8a
8.g
16e
=12
8d
8dd;
8b
4a
8g
=13
8f#
8f#
16g
16a
16b
16b
8r
8a
=14
8a
8g#
8a
4ff#
16ff#
16ee
=15
8dd
8cc#
8b
8.a
16g
8f#
=16
4e
16.g
32f#
4.d
==
*-
